X: 27936
T: Mountain Top, The
R: reel
M: 4/4
K: Gmajor
B2AG EGDG|G2Bd edgd|BGAG EGDG|B2Ac BGG2:|
Bd~d2 edBA|Bdef gfed|Bd~d2 Bdge|dBAc BGG2|
Bd~d2 edBA|Bdef g3a|bgaf gfed|(3efgfa gedc||

